assets/img/feature_6.svg

<svg width="76" height="66" viewBox="0 0 76 66" fill="none" xmlns="http://www.w3.org/2000/svg">
<path fill-rule="evenodd" clip-rule="evenodd" d="M1.67042 6.62326C0.324707 9.21808 0.324707 12.6149 0.324707 19.4085V31.0334C0.324707 31.3738 0.324707 31.7057 0.324876 32.0294V61.7435C0.324876 64.4133 3.55032 65.7531 5.44194 63.869L15.9757 53.3774C17.5773 51.5842 19.9963 50.4419 22.7031 50.4419C22.7539 50.4419 22.8045 50.4423 22.8551 50.4431V50.4419H52.5366V50.4609C54.9191 50.6118 57.0391 51.649 58.5162 53.2198H58.5396L70.7923 64.8236C72.7044 66.6345 75.8551 65.279 75.8551 62.6454V38.554C75.9895 36.6054 75.9895 34.1849 75.9895 31.0334V19.4085C75.9895 12.6149 75.9895 9.21808 74.6438 6.62326C73.46 4.3408 71.5712 2.4851 69.2481 1.32212C66.6069 0 63.1495 0 56.2347 0H20.0794C13.1646 0 9.70724 0 7.06613 1.32212C4.74295 2.4851 2.85414 4.3408 1.67042 6.62326Z" fill="#EF6CF6"/>
<path fill-rule="evenodd" clip-rule="evenodd" d="M57.9389 19.6064C59.1647 18.3806 59.1647 16.3932 57.9389 15.1674C56.7131 13.9416 54.7257 13.9416 53.4999 15.1674C52.2741 16.3932 52.2741 18.3806 53.4999 19.6064C54.7257 20.8322 56.7131 20.8322 57.9389 19.6064ZM57.5579 37.2318C58.7837 36.006 58.7837 34.0186 57.5579 32.7928C56.3321 31.567 54.3447 31.567 53.1189 32.7928C51.8931 34.0186 51.8931 36.006 53.1189 37.2318C54.3447 38.4576 56.3321 38.4576 57.5579 37.2318ZM48.936 28.6093C47.7102 29.8351 45.7228 29.8351 44.497 28.6093C43.2712 27.3835 43.2712 25.3961 44.497 24.1703C45.7228 22.9445 47.7102 22.9445 48.936 24.1703C50.1618 25.3961 50.1618 27.3835 48.936 28.6093ZM62.1224 28.2283C63.3482 29.4541 65.3356 29.4541 66.5614 28.2283C67.7872 27.0025 67.7872 25.0151 66.5614 23.7893C65.3356 22.5635 63.3482 22.5635 62.1224 23.7893C60.8966 25.0151 60.8966 27.0025 62.1224 28.2283Z" fill="#FFFDEF"/>
<path fill-rule="evenodd" clip-rule="evenodd" d="M18.4565 15.7007C17.3519 15.7007 16.4565 16.5961 16.4565 17.7007V22.8699L11.0967 22.8699C9.99211 22.8699 9.09668 23.7653 9.09668 24.8699L9.09668 27.1476C9.09668 28.2521 9.99211 29.1476 11.0967 29.1476H16.4565V34.698C16.4565 35.8026 17.3519 36.698 18.4565 36.698H20.7341C21.8387 36.698 22.7341 35.8026 22.7341 34.698V29.1476H28.094C29.1986 29.1476 30.094 28.2521 30.094 27.1476V24.8699C30.094 23.7653 29.1986 22.8699 28.094 22.8699L22.7341 22.8699V17.7007C22.7341 16.5961 21.8387 15.7007 20.7341 15.7007H18.4565Z" fill="#FFFDEF"/>
</svg>

<svg xmlns="http://www.w3.org/2000/svg" width="76" height="66" fill="none" viewBox="0 0 76 66"><path fill="#EF6CF6" fill-rule="evenodd" d="M1.67 6.623C.325 9.218.325 12.615.325 19.408v42.335c0 2.67 3.225 4.01 5.117 2.126l10.534-10.492c1.601-1.793 4.02-2.935 6.727-2.935l.152.001v-.001h29.682v.019c2.382.15 4.502 1.188 5.98 2.759h.023l12.252 11.604c1.912 1.81 5.063.455 5.063-2.179V38.554c.135-1.949.135-4.37.135-7.52V19.408c0-6.794 0-10.19-1.346-12.786a12.242 12.242 0 0 0-5.396-5.3C66.607 0 63.15 0 56.235 0H20.079C13.165 0 9.707 0 7.066 1.322A12.24 12.24 0 0 0 1.67 6.623Z" clip-rule="evenodd"/><path fill="#FFFDEF" fill-rule="evenodd" d="M57.939 19.606a3.139 3.139 0 1 0-4.44-4.439 3.139 3.139 0 0 0 4.44 4.44Zm-.381 17.626a3.139 3.139 0 1 0-4.44-4.44 3.139 3.139 0 0 0 4.44 4.44Zm-8.622-8.623a3.139 3.139 0 1 1-4.439-4.439 3.139 3.139 0 0 1 4.439 4.44Zm13.186-.38a3.139 3.139 0 1 0 4.44-4.44 3.139 3.139 0 0 0-4.44 4.44ZM18.456 15.7a2 2 0 0 0-2 2v5.17h-5.36a2 2 0 0 0-2 2v2.278a2 2 0 0 0 2 2h5.36v5.55a2 2 0 0 0 2 2h2.278a2 2 0 0 0 2-2v-5.55h5.36a2 2 0 0 0 2-2V24.87a2 2 0 0 0-2-2h-5.36V17.7a2 2 0 0 0-2-2h-2.278Z" clip-rule="evenodd"/></svg>
